src/assets/images/template_image/7.svg

<svg width="48" height="48" viewBox="0 0 48 48" fill="none" xmlns="http://www.w3.org/2000/svg"><path opacity=".2" d="M24 46C36.1503 46 46 36.1503 46 24 46 11.8497 36.1503 2 24 2 11.8497 2 2 11.8497 2 24 2 36.1503 11.8497 46 24 46z" fill="#62c378"/><path d="M33.9 13H14.1C13.4889 13 13 13.4889 13 14.1V33.9C13 34.3889 13.4889 35 14.1 35H33.9C34.3889 35 35 34.3889 35 33.9V14.1C35 13.4889 34.3889 13 33.9 13zM22.7778 17.8889H30.1111V20.3333H22.7778V17.8889zm0 4.8889H30.1111V25.2222H22.7778V22.7778zm0 4.8889H30.1111V30.1111H22.7778V27.6667zm-4.8889-9.7778H20.3333V20.3333H17.8889V17.8889zm0 4.8889H20.3333V25.2222H17.8889V22.7778zm0 4.8889H20.3333V30.1111H17.8889V27.6667z" fill="#62c378"/></svg>

<svg width="48" height="48" fill="none" xmlns="http://www.w3.org/2000/svg"><path opacity=".2" d="M24 46c12.15 0 22-9.85 22-22S36.15 2 24 2 2 11.85 2 24s9.85 22 22 22z" fill="#62c378"/><path d="M33.9 13H14.1c-.611 0-1.1.489-1.1 1.1v19.8c0 .489.489 1.1 1.1 1.1h19.8c.489 0 1.1-.611 1.1-1.1V14.1c0-.611-.611-1.1-1.1-1.1zm-11.122 4.889h7.333v2.444h-7.333V17.89zm0 4.889h7.333v2.444h-7.333v-2.444zm0 4.889h7.333v2.444h-7.333v-2.444zm-4.89-9.778h2.445v2.444H17.89V17.89zm0 4.889h2.445v2.444H17.89v-2.444zm0 4.889h2.445v2.444H17.89v-2.444z" fill="#62c378"/></svg>
